X: 3
T: The Hare In The Corn
R: jig
M: 6/8
L: 1/8
K: Dmaj
F2A AFA|BdB AFE|F2E EDE|F2D D3|
F2A AFA|BdB AFA|Bcd ecA|1d3 d3:|2d3 d2e||
f2f fed|g2e ede|faf fed|aga bag|
fef fed|g2e edA|Bcd ecA|1d3 d2e:|2d3 d3||


Tune 1736	Setting 28540

